resources/svg/vmware.svg

<svg xmlns="http://www.w3.org/2000/svg" viewBox="0 0 24 24" fill="currentColor"><path fill="currentColor" fill-rule="evenodd" d="M5.57403651,0 C4.61501014,0 3.84584178,0.753590264 3.84584178,1.67951318 L3.84584178,7.42393509 L1.72819473,7.42393509 C0.769168365,7.42393486 0,8.18044625 0,9.10344828 L0,21.5415822 C0,22.4675058 0.769168357,23.2210953 1.72819473,23.2210953 L14.5801217,23.2210953 C15.5391481,23.2210946 16.3326572,22.4675051 16.3326572,21.5415822 L16.3326572,19.4969574 L22.2718053,19.4969574 C23.229858,19.4969582 24,18.7404462 24,17.8174442 L24,5.37931034 C24,4.45533461 23.229858,3.72413793 22.2718053,3.72413793 L20.1541582,3.72413793 L20.1541582,1.67951318 C20.1541582,0.753590287 19.3830426,0 18.4259635,0 L5.57403651,0 L5.57403651,0 Z M5.57403651,0.949290061 L18.4259635,0.949290061 C18.8455976,0.949290139 19.1805274,1.2725355 19.1805274,1.67951318 L19.1805274,3.72413793 L9.4198783,3.72413793 C8.46279919,3.72413785 7.6673428,4.45533469 7.6673428,5.37931034 L7.6673428,7.42393509 L4.81947262,7.42393509 L4.81947262,1.67951318 C4.81947246,1.2725355 5.15148073,0.949290061 5.57403651,0.949290061 L5.57403651,0.949290061 Z M9.4198783,4.64908722 L19.1805274,4.64908722 L19.1805274,14.0933063 C19.1805274,14.5002848 18.8455984,14.8478702 18.4259635,14.8478702 L16.3326572,14.8478702 L16.3326572,9.10344828 C16.332658,8.18044625 15.5391481,7.42393509 14.5801217,7.42393509 L8.64097363,7.42393509 L8.64097363,5.37931034 C8.64097363,4.97330621 9.00024341,4.64908722 9.4198783,4.64908722 L9.4198783,4.64908722 Z M20.1541582,4.64908722 L22.2718053,4.64908722 C22.6924138,4.64908707 23.0263692,4.97330629 23.0263692,5.37931034 L23.0263692,17.8174442 C23.0263692,18.2234483 22.6924138,18.5476673 22.2718053,18.5476673 L16.3326572,18.5476673 L16.3326572,15.7971602 L18.4259635,15.7971602 C19.3830418,15.7971595 20.1541582,15.0192292 20.1541582,14.0933063 L20.1541582,4.64908722 L20.1541582,4.64908722 Z M1.72819473,8.37322515 L3.84584178,8.37322515 L3.84584178,14.0933063 C3.84584178,15.01923 4.61501014,15.7971602 5.57403651,15.7971602 L7.6673428,15.7971602 L7.6673428,17.8174442 C7.66734295,18.7404462 8.46279919,19.4969574 9.4198783,19.4969574 L15.3590264,19.4969574 L15.3590264,21.5415822 C15.3590271,21.947587 15.0026775,22.2718053 14.5801217,22.2718053 L1.72819473,22.2718053 C1.30271805,22.2718045 0.973630832,21.9475862 0.973630832,21.5415822 L0.973630832,9.10344828 C0.97363091,8.69841785 1.30271805,8.37322515 1.72819473,8.37322515 L1.72819473,8.37322515 Z M4.81947262,8.37322515 L7.6673428,8.37322515 L7.6673428,14.8478702 L5.57403651,14.8478702 C5.15148073,14.8478702 4.81947262,14.500284 4.81947262,14.0933063 L4.81947262,8.37322515 L4.81947262,8.37322515 Z M8.64097363,8.37322515 L14.5801217,8.37322515 C15.0026775,8.37322515 15.3590264,8.69841785 15.3590264,9.10344828 L15.3590264,14.8478702 L8.64097363,14.8478702 L8.64097363,8.37322515 L8.64097363,8.37322515 Z M8.64097363,15.7971602 L15.3590264,15.7971602 L15.3590264,18.5476673 L9.4198783,18.5476673 C9.00024341,18.5476673 8.64097363,18.2234483 8.64097363,17.8174442 L8.64097363,15.7971602 L8.64097363,15.7971602 Z"/></svg>

<svg viewBox="0 0 24 24"><path fill="currentColor" fill-rule="evenodd" d="M5.574 0c-.959 0-1.728.754-1.728 1.68v5.744H1.728C.77 7.424 0 8.18 0 9.104v12.438c0 .926.77 1.68 1.728 1.68H14.58c.96 0 1.753-.754 1.753-1.68v-2.045h5.939c.958 0 1.728-.757 1.728-1.68V5.38c0-.924-.77-1.655-1.728-1.655h-2.118V1.68c0-.926-.771-1.68-1.728-1.68H5.574zm0 .95h12.852c.42 0 .755.323.755.73v2.044H9.42c-.957 0-1.753.731-1.753 1.655v2.045H4.82V1.68c0-.407.332-.73.755-.73zm3.846 3.7h9.76v9.443a.759.759 0 0 1-.754.755h-2.093V9.103c0-.923-.794-1.68-1.753-1.68H8.641V5.38c0-.406.36-.73.779-.73zm10.734 0h2.118c.42 0 .754.323.754.73v12.437c0 .406-.334.73-.754.73h-5.94v-2.75h2.094c.957 0 1.728-.778 1.728-1.704V4.65zM1.728 8.372h2.118v5.72c0 .926.769 1.704 1.728 1.704h2.093v2.02c0 .923.796 1.68 1.753 1.68h5.939v2.045c0 .406-.356.73-.779.73H1.728a.735.735 0 0 1-.754-.73V9.103c0-.405.329-.73.754-.73zm3.091 0h2.848v6.475H5.574a.757.757 0 0 1-.755-.755v-5.72zm3.822 0h5.94c.422 0 .778.325.778.73v5.745H8.641V8.373zm0 7.424h6.718v2.75h-5.94c-.419 0-.778-.324-.778-.73v-2.02z"/></svg>
